symbols/web/hail/materialsymbolsoutlined/hail_wght700grad200_20px.svg

<svg xmlns="http://www.w3.org/2000/svg" height="20" width="20"><path d="M10.062 4.646q-.854 0-1.468-.594-.615-.594-.615-1.448 0-.875.604-1.479.605-.604 1.479-.604.855 0 1.438.604t.583 1.479q0 .854-.583 1.448t-1.438.594ZM7.021 18.771v-9.75q-.209.583-.427 1.458-.219.875-.219 2.188H3.792q0-3.959 1.656-5.625 1.656-1.667 4.614-1.667 1.834 0 2.761-1.125t.927-3.208h2.583q0 2.104-.812 3.791-.813 1.688-2.438 2.479v11.459H10.5v-5.125h-.896v5.125Zm-4.188 0v-5.188H6.25v5.188Z"/></svg>

<svg xmlns="http://www.w3.org/2000/svg" height="20" width="20"><path d="M10.062 4.646Q9.208 4.646 8.594 4.052Q7.979 3.458 7.979 2.604Q7.979 1.729 8.583 1.125Q9.188 0.521 10.062 0.521Q10.917 0.521 11.5 1.125Q12.083 1.729 12.083 2.604Q12.083 3.458 11.5 4.052Q10.917 4.646 10.062 4.646ZM7.021 18.771V9.021Q6.812 9.604 6.594 10.479Q6.375 11.354 6.375 12.667H3.792Q3.792 8.708 5.448 7.042Q7.104 5.375 10.062 5.375Q11.896 5.375 12.823 4.25Q13.75 3.125 13.75 1.042H16.333Q16.333 3.146 15.521 4.833Q14.708 6.521 13.083 7.312V18.771H10.5V13.646H9.604V18.771ZM2.833 18.771V13.583H6.25V18.771Z"/></svg>
